public/assets/images/service/07.svg

<svg width="36" height="36" viewBox="0 0 36 36" fill="none" xmlns="http://www.w3.org/2000/svg">
<path d="M36 15.0968H34.6952L32.7506 16.12C32.5317 15.9992 32.3041 15.8969 32.0585 15.8353L29.6123 15.2232V14.9451C30.6945 14.1898 31.3548 12.942 31.3548 11.6129V10.5979C31.3548 8.34224 29.5874 6.45457 27.4151 6.3888C27.3048 6.38596 27.1962 6.38993 27.087 6.39532L27.7213 4.91053L24.6465 1.83663L22.834 3.01635C22.1453 2.6285 21.417 2.32655 20.6605 2.11476L20.2129 0H15.7877L15.34 2.11533C14.5836 2.32712 13.8547 2.62906 13.1666 3.01692L11.3541 1.8372L8.28185 4.9094L8.9053 6.39532C8.88149 6.39418 8.85881 6.38993 8.83499 6.38936C7.72303 6.35704 6.67572 6.76276 5.88017 7.53506C5.08348 8.3068 4.64516 9.34249 4.64516 10.4516V11.6129C4.64516 12.942 5.30491 14.1892 6.3871 14.9445V15.2232L4.79146 15.6221L1.89929 13.9355H0V25.9671L5.71232 27.871H6.82485L6.96377 27.3844L8.71478 28.4355C8.74342 29.3875 9.50693 30.1536 10.4581 30.187C10.4916 31.1343 11.2528 31.8955 12.2001 31.929C12.2335 32.8762 12.9948 33.6374 13.942 33.6709C13.9766 34.6402 14.7704 35.4194 15.7477 35.4194C16.1106 35.4194 16.4664 35.3062 16.7656 35.1046L17.2799 35.5588C17.6022 35.8426 18.0173 36 18.4482 36H18.5557C19.5219 36 20.3081 35.2189 20.3203 34.2558C21.2761 34.2436 22.0501 33.4696 22.0622 32.5139C23.0186 32.5017 23.7931 31.7265 23.8042 30.7702C24.7693 30.7475 25.5484 29.9591 25.5484 28.9886C25.5484 28.9302 25.5456 28.8726 25.5396 28.8145L36 23.5847V15.0968ZM30.1935 10.5979V11.6129C30.1935 12.6435 29.6367 13.6063 28.7402 14.1254L28.4499 14.2933L28.4522 16.1308L31.3531 16.8554L24.9677 20.2163V18.6521C24.9677 17.8716 24.6525 17.1568 24.1362 16.6286L26.129 16.1308V14.2919L25.8393 14.1243C24.9434 13.6063 24.3871 12.6435 24.3871 11.6129V10.4516C24.3871 9.65975 24.7001 8.9192 25.2691 8.36775C25.8376 7.8166 26.5917 7.51947 27.3802 7.55009C28.9313 7.59658 30.1935 8.96399 30.1935 10.5979ZM18.8755 19.7598L16.247 18.9197C15.0491 18.5358 13.7526 18.4786 12.5264 18.7502L12.1935 18.8239V18.6521C12.1935 17.8514 12.7365 17.1562 13.5128 16.9618L16.8387 16.1308V14.2919L16.549 14.1243C15.653 13.6063 15.0968 12.6435 15.0968 11.6129V10.4516C15.0968 9.65975 15.4098 8.9192 15.9788 8.36775C16.5473 7.8166 17.3062 7.51947 18.0899 7.55009C19.641 7.59658 20.9032 8.96399 20.9032 10.5979V11.6129C20.9032 12.6435 20.3464 13.6063 19.4499 14.1254L19.1596 14.2933L19.1619 16.1308L22.4872 16.9618C23.2635 17.1562 23.8065 17.8514 23.8065 18.6521V20.8278L23.663 20.9032H23.3072L19.7374 19.8831C19.4561 19.8035 19.1664 19.7709 18.8755 19.7598ZM12.3237 8.6904C13.4141 6.57762 15.6088 5.22581 18 5.22581C20.3685 5.22581 22.5539 6.55948 23.6525 8.64362C23.3761 9.1979 23.2258 9.81171 23.2258 10.4516V11.6129C23.2258 12.942 23.8856 14.1892 24.9677 14.9445V15.2232L22.6452 15.8047L20.322 15.2232V14.9451C21.4042 14.1898 22.0645 12.942 22.0645 11.6129V10.5979C22.0645 8.34224 20.2971 6.45457 18.1247 6.3888C17.0134 6.35619 15.9655 6.76219 15.1699 7.53449C14.3738 8.3068 13.9355 9.34249 13.9355 10.4516V11.6129C13.9355 12.942 14.5952 14.1892 15.6774 14.9445V15.2232L13.3548 15.8047L11.0317 15.2232V14.9451C12.1139 14.1898 12.7742 12.942 12.7742 11.6129V10.5979C12.7742 9.91463 12.6098 9.26594 12.3237 8.6904ZM9.65323 5.17874L11.5083 3.32368L13.1411 4.38631L13.4535 4.19465C14.2363 3.71494 15.0823 3.36366 15.9677 3.15187L16.325 3.06625L16.729 1.16129H19.2716L19.6745 3.06568L20.0317 3.15102C20.9171 3.36309 21.7631 3.71437 22.5459 4.19408L22.8584 4.38574L24.4911 3.32312L26.3439 5.17647L25.6853 6.71853C25.2371 6.91132 24.8214 7.18265 24.4597 7.53336C24.4359 7.55661 24.4154 7.58156 24.3922 7.60537C23.0242 5.43079 20.6058 4.06452 18 4.06452C15.3755 4.06452 12.9503 5.44355 11.5857 7.64025C11.2205 7.25806 10.7862 6.94846 10.3048 6.73214L9.65323 5.17874ZM7.54839 16.1308V14.2919L7.25863 14.1243C6.36271 13.6063 5.80645 12.6435 5.80645 11.6129V10.4516C5.80645 9.65975 6.11946 8.9192 6.68848 8.36775C7.25693 7.8166 8.01279 7.51947 8.79955 7.55009C10.3507 7.59658 11.6129 8.96399 11.6129 10.5979V11.6129C11.6129 12.6435 11.0561 13.6063 10.1596 14.1254L9.86927 14.2933L9.87153 16.1308L11.8638 16.6286C11.3475 17.1568 11.0323 17.8716 11.0323 18.6521V19.0822L9.22114 19.4848L9.26821 19.3203L9.29032 18.2472L6.22804 16.4608L7.54839 16.1308ZM1.16129 15.0968H1.58458L5.76052 17.5325L3.65341 25.9606L1.16129 25.1296V15.0968ZM5.90058 26.7097L4.75772 26.3289L6.80472 18.1418L8.12903 18.9141V19.0799L5.94934 26.7097H5.90058ZM9.87097 28.3813C9.87097 28.2101 9.94015 28.0422 10.0615 27.9209L11.0822 26.9002C11.2035 26.7789 11.3713 26.7097 11.5426 26.7097C11.9015 26.7097 12.1935 27.0017 12.1935 27.3606C12.1935 27.5319 12.1244 27.6997 12.003 27.8211L10.9824 28.8417C10.861 28.9631 10.6932 29.0323 10.5219 29.0323C10.163 29.0323 9.87097 28.7402 9.87097 28.3813ZM11.6129 30.1232C11.6129 29.952 11.6821 29.7841 11.8034 29.6628L12.8241 28.6421C12.9454 28.5208 13.1133 28.4516 13.2845 28.4516C13.6435 28.4516 13.9355 28.7436 13.9355 29.1026C13.9355 29.2738 13.8663 29.4417 13.745 29.563L12.7243 30.5837C12.6029 30.705 12.4351 30.7742 12.2639 30.7742C11.9049 30.7742 11.6129 30.4822 11.6129 30.1232ZM13.3548 31.8652C13.3548 31.6939 13.424 31.5261 13.5454 31.4047L14.566 30.3841C14.6874 30.2627 14.8552 30.1935 15.0265 30.1935C15.3854 30.1935 15.6774 30.4856 15.6774 30.8445C15.6774 31.0158 15.6082 31.1836 15.4869 31.3049L14.4662 32.3256C14.3449 32.4469 14.177 32.5161 14.0058 32.5161C13.6469 32.5161 13.3548 32.2241 13.3548 31.8652ZM15.7477 34.2581C15.3888 34.2581 15.0968 33.966 15.0968 33.6071C15.0968 33.4359 15.166 33.268 15.2873 33.1467L16.308 32.126C16.4293 32.0047 16.5972 31.9355 16.7684 31.9355C17.1273 31.9355 17.4194 32.2275 17.4194 32.5864C17.4194 32.7577 17.3502 32.9255 17.2288 33.0469L16.2082 34.0675C16.0868 34.1889 15.919 34.2581 15.7477 34.2581ZM18.5557 34.8387H18.4482C18.3002 34.8387 18.1585 34.7848 18.0482 34.687L17.6138 34.304L18.0499 33.8679C18.2055 33.7123 18.3263 33.5272 18.4156 33.3284L18.9435 33.7679C19.0816 33.883 19.1613 34.0525 19.1613 34.2331C19.1613 34.5671 18.8897 34.8387 18.5557 34.8387ZM23.7628 29.6129H23.6624C23.5167 29.6129 23.3744 29.5613 23.2629 29.4677L20.1142 26.8438L19.3702 27.7363L22.428 30.284C22.5655 30.3991 22.6452 30.5686 22.6452 30.7492C22.6452 31.0832 22.3736 31.3548 22.0396 31.3548H21.9128C21.7719 31.3548 21.6341 31.3049 21.5255 31.2142L18.3717 28.5863L17.6277 29.4788L20.6855 32.0268C20.8236 32.141 20.9032 32.3106 20.9032 32.4912C20.9032 32.8252 20.6316 33.0968 20.2976 33.0968C20.0748 33.0968 19.8576 33.0177 19.6866 32.8756L18.3907 31.7954C18.1052 31.2119 17.5186 30.8051 16.8316 30.7807C16.7982 29.8335 16.0369 29.0722 15.0897 29.0388C15.0562 28.0915 14.295 27.3303 13.3478 27.2968C13.3137 26.3275 12.5199 25.5484 11.5426 25.5484C11.0654 25.5484 10.5985 25.7417 10.2611 26.0791L9.24042 27.0998C9.17947 27.1608 9.129 27.2299 9.07768 27.2985L7.29407 26.2283L8.85767 20.7558L12.7776 19.8843C13.8059 19.6543 14.8901 19.7042 15.8929 20.0252L16.7483 20.2988L13.8484 21.7487C13.1859 22.0807 12.7742 22.7472 12.7742 23.4883V23.6032C12.7742 24.6757 13.6469 25.5484 14.7194 25.5484C15.0718 25.5484 15.4186 25.4526 15.7199 25.2708L17.8821 23.9743C18.3164 23.714 18.8993 23.771 19.2744 24.1084L24.1804 28.5236C24.3117 28.6427 24.3871 28.8117 24.3871 28.9886C24.3871 29.3331 24.1073 29.6129 23.7628 29.6129ZM34.8387 22.8669L25.0565 27.7584C25.0247 27.7247 24.9916 27.6926 24.9567 27.6614L20.0515 23.2462C19.6217 22.8584 19.066 22.6452 18.4871 22.6452C18.0638 22.6452 17.6482 22.7603 17.2841 22.9786L15.1212 24.2757C14.9998 24.3488 14.8612 24.3871 14.7194 24.3871C14.2868 24.3871 13.9355 24.0358 13.9355 23.6032V23.4883C13.9355 23.1892 14.1016 22.921 14.3687 22.7875L17.6076 21.168C18.1619 20.8905 18.8199 20.8284 19.4173 21.0002L23.0662 22.0424L23.9499 22.0645L34.8387 16.3335V22.8669Z" fill="#20282D"/>
</svg>

<svg xmlns="http://www.w3.org/2000/svg" width="36" height="36" fill="none" viewBox="0 0 36 36"><path fill="#20282d" d="M36 15.097h-1.305l-1.944 1.023a3 3 0 0 0-.692-.285l-2.447-.612v-.278a4.08 4.08 0 0 0 1.743-3.332v-1.015c0-2.256-1.768-4.143-3.94-4.21a4 4 0 0 0-.328.007l.634-1.484-3.075-3.074-1.812 1.18a9.8 9.8 0 0 0-2.174-.902L20.214 0h-4.425l-.448 2.115a9.8 9.8 0 0 0-2.173.902l-1.813-1.18L8.282 4.91l.623 1.486c-.024 0-.046-.005-.07-.006A4.03 4.03 0 0 0 5.88 7.535a4.03 4.03 0 0 0-1.235 2.917v1.16c0 1.33.66 2.577 1.742 3.332v.28l-1.596.398L1.9 13.935H0v12.032l5.712 1.904h1.113l.139-.487 1.75 1.052a1.81 1.81 0 0 0 1.744 1.751 1.81 1.81 0 0 0 1.742 1.742 1.81 1.81 0 0 0 1.742 1.742 1.81 1.81 0 0 0 1.806 1.748 1.83 1.83 0 0 0 1.018-.314l.514.454c.322.284.737.441 1.168.441h.108c.966 0 1.752-.781 1.764-1.744a1.766 1.766 0 0 0 1.742-1.742 1.766 1.766 0 0 0 1.742-1.744 1.785 1.785 0 0 0 1.736-1.956L36 23.585zm-5.806-4.5v1.016c0 1.03-.557 1.993-1.454 2.512l-.29.168.002 1.838 2.901.724-6.385 3.361v-1.564a2.9 2.9 0 0 0-.832-2.023l1.993-.498v-1.84l-.29-.167a2.91 2.91 0 0 1-1.452-2.511v-1.161c0-.792.313-1.533.882-2.084a2.86 2.86 0 0 1 2.111-.818c1.551.047 2.814 1.414 2.814 3.048M18.876 19.76l-2.629-.84a7.17 7.17 0 0 0-3.72-.17l-.333.074v-.172c0-.8.542-1.496 1.319-1.69l3.326-.831v-1.84l-.29-.167a2.91 2.91 0 0 1-1.452-2.511v-1.161c0-.792.313-1.533.882-2.084a2.87 2.87 0 0 1 2.11-.818c1.552.047 2.814 1.414 2.814 3.048v1.015c0 1.03-.557 1.993-1.453 2.512l-.29.168.002 1.838 3.325.83a1.74 1.74 0 0 1 1.32 1.691v2.176l-.144.075h-.356l-3.57-1.02a3.7 3.7 0 0 0-.861-.123M12.324 8.69A6.41 6.41 0 0 1 18 5.226a6.42 6.42 0 0 1 5.653 3.418 4.04 4.04 0 0 0-.427 1.808v1.16c0 1.33.66 2.577 1.742 3.332v.28l-2.323.58-2.323-.58v-.279a4.08 4.08 0 0 0 1.742-3.332v-1.015c0-2.256-1.767-4.143-3.94-4.21a4.03 4.03 0 0 0-2.954 1.146 4.03 4.03 0 0 0-1.235 2.918v1.16c0 1.33.66 2.577 1.742 3.332v.28l-2.322.58-2.323-.58v-.279a4.08 4.08 0 0 0 1.742-3.332v-1.015a4.3 4.3 0 0 0-.45-1.908m-2.67-3.51 1.854-1.855 1.633 1.062.313-.191a8.7 8.7 0 0 1 2.514-1.043l.357-.086.404-1.905h2.543l.402 1.905.358.085a8.7 8.7 0 0 1 2.514 1.043l.312.192 1.633-1.063 1.853 1.853-.659 1.543a4 4 0 0 0-1.225.814l-.068.072A7.58 7.58 0 0 0 18 4.065a7.57 7.57 0 0 0-6.414 3.575 4.1 4.1 0 0 0-1.281-.908zM7.547 16.13v-1.84l-.29-.167a2.91 2.91 0 0 1-1.452-2.511v-1.161c0-.792.313-1.533.882-2.084A2.87 2.87 0 0 1 8.8 7.55c1.55.047 2.813 1.414 2.813 3.048v1.015c0 1.03-.557 1.993-1.453 2.512l-.29.168.002 1.838 1.992.498a2.9 2.9 0 0 0-.832 2.023v.43l-1.81.403.046-.165.022-1.073-3.062-1.786zM1.16 15.096h.424l4.176 2.435-2.108 8.429-2.492-.831zM5.9 26.709l-1.143-.381 2.047-8.187 1.324.772v.166l-2.18 7.63zm3.97 1.671c0-.17.07-.339.19-.46l1.021-1.02a.652.652 0 0 1 .92.92l-1.02 1.02a.652.652 0 0 1-1.111-.46m1.742 1.742a.66.66 0 0 1 .19-.46l1.021-1.02a.652.652 0 0 1 .92.92l-1.02 1.02a.652.652 0 0 1-1.111-.46m1.742 1.742c0-.171.069-.339.19-.46l1.021-1.02a.652.652 0 0 1 .92.92l-1.02 1.02a.652.652 0 0 1-1.111-.46m2.393 2.393a.652.652 0 0 1-.46-1.111l1.02-1.021a.652.652 0 0 1 .92.92l-1.02 1.022a.66.66 0 0 1-.46.19m2.808.58h-.108a.6.6 0 0 1-.4-.151l-.434-.383.436-.436c.155-.156.276-.34.366-.54l.527.44a.604.604 0 0 1-.387 1.07m5.207-5.225h-.1a.62.62 0 0 1-.4-.145l-3.149-2.624-.744.892 3.058 2.548a.605.605 0 0 1-.388 1.07h-.127a.6.6 0 0 1-.387-.14l-3.154-2.628-.744.893 3.058 2.548a.606.606 0 0 1-.388 1.07.96.96 0 0 1-.611-.221l-1.296-1.08a1.81 1.81 0 0 0-1.56-1.015 1.81 1.81 0 0 0-1.741-1.742 1.81 1.81 0 0 0-1.742-1.742 1.81 1.81 0 0 0-3.087-1.218l-1.02 1.02c-.062.062-.112.13-.163.2l-1.784-1.07 1.564-5.473 3.92-.872a6 6 0 0 1 3.115.141l.855.274-2.9 1.45a1.94 1.94 0 0 0-1.074 1.74v.114a1.948 1.948 0 0 0 2.946 1.668l2.162-1.297a1.2 1.2 0 0 1 1.392.134l4.906 4.416a.625.625 0 0 1-.418 1.09m11.076-6.746-9.782 4.891a2 2 0 0 0-.1-.097l-4.905-4.415a2.33 2.33 0 0 0-2.768-.267l-2.163 1.297a.784.784 0 0 1-1.186-.672v-.116c0-.299.167-.567.434-.7l3.239-1.62a2.52 2.52 0 0 1 1.81-.168l3.648 1.042.884.022 10.889-5.73z"/></svg>
